X:521
T:Vals # 521
T: efter fadern
M:3/4
L:1/8
K: G
Q: 160
GB| d2g2g2| g2b2ag| f2AB AG| A4 dd| d2f2g2| a2b2c'2| (d'c') bc' af|
g4:: Bc| d2 BG Bc| d2 BG Bd| c2e2c2| A4FG| AA FD FA| AA FD FA|
A2GF GA G4:|

